X:1
T:Title
%%score { ( 1 3 ) | ( 2 4 ) }
L:1/8
M:4/4
K:Bb
V:1 treble nm="Grand Piano"
V:3 treble 
V:2 bass 
V:4 bass 
V:1
 z4 z[Q:1/4=90] [DF][_D=E][=DF] | [Fd]3 [Fd] [Ac][B,GB][B,FA][B,EG] | [B,DB]2 [B,DF]2- [B,DF]FGF | %3
 z A,A,A, A,cdc | F6 z2 | [Fd]3 [Fd] [Ac][B,GB][B,FA][B,EG] | [B,DB]2 [B,DF]2- [B,DF]FFG | %7
 A6[K:bass][K:treble] z2 |[M:5/8] c-c- c3 |[M:3/8] eed |[M:4/4] c4 z4 | %11
 [DB]2 [DF]4[K:bass][K:treble] z2 | G6 z2 | F6 z2 | [Fd]4 z4 | %15
[M:17/16] [Ge]-<[Ge]G/-G/-G/-G-<GBAG[Q:1/4=87][Q:1/4=84][Q:1/4=82][Q:1/4=79][Q:1/4=76][Q:1/4=73][Q:1/4=70] | %16
 F/-F/-F/-F/-F/-F/-F-<Fddc3/2 |[M:11/16] B/-B/-B/-B/-B/-B/-B/-B-<B |] %18
V:2
 z4 z [B,,B,][B,,B,][B,,B,] | [B,,B,]3 [B,,B,] [E,B,]E,E,E, | B,,2 B,,2- B,,DED | C6[K:treble] z2 | %4
 D6[K:bass] z2 | [B,,B,]3 [B,,B,] [E,B,]E,E,E, | B,,2 B,,2- B,,DD_D | C4 z4 | %8
[M:5/8] [F,A,E]-[F,A,E]- [F,A,E]3 |[M:3/8][K:treble] GG[K:bass][F,A,F] |[M:4/4] E4 z4 | %11
 [B,,B,]B,,B,,B,, B,,[K:treble]DDF | E6[K:bass][K:treble] z2 | D6[K:bass] z2 | %14
 [B,,B,]F, z[K:treble] [B,CF] [B,DF][B,DF][B,EA][B,F_A] | %15
[M:17/16][K:bass] [E,E]-<[E,E][E,B,E]/-[E,B,E]/-[E,B,E]/-[E,B,E]-<[E,B,E][=E,G,_D][E,A,D][E,B,D] | %16
 [F,B,D]/-[F,B,D]/-[F,B,D]/-[F,B,D]/-[F,B,D]/-[F,B,D]/-[F,B,D]-<[F,B,D][F,B,F][F,A,F][F,A,E]3/2 | %17
[M:11/16] z _A,G,^F,=F,3/2 |] %18
V:3
 x8 | x8 | x8 | E6 z2 | z B,B,B, B,[DF][_D=E][=DF] | x8 | x8 | %7
 z[K:bass] F,F,A,[K:treble] F[Fc][=Ec][EG] |[M:5/8] x5 |[M:3/8] x3 |[M:4/4] z A,A,c =Bcdc | %11
 z B,A,[K:bass]G, F,[K:treble]BBA | z B,B,B, B,cBG | z B,B,B, B,F=E[DF] | z B,B,c BBcd | %15
[M:17/16] x17/2 | x17/2 |[M:11/16] [B,D]FEB,/C<D |] %18
V:4
 x8 | x8 | x8 | z F,F,F, F,[K:treble]EFE | z[K:bass] B,,D,F, z [B,,B,][B,,B,][B,,B,] | x8 | x8 | %7
 z C,C,C, [C,C][C,A,][C,B,][C,B,] |[M:5/8] x5 |[M:3/8][K:treble] x2[K:bass] x | %10
[M:4/4] [F,A,]F,F,[F,A,E] [F,_A,D][F,=A,E][F,A,F][F,A,E] | x5[K:treble] x3 | %12
 z[K:bass] E,E,E, E,[K:treble]AGE | z[K:bass] D,D,F, z D_D[B,,B,] | x3[K:treble] x5 | %15
[M:17/16][K:bass] x17/2 | x17/2 |[M:11/16] B,,/-B,,/-B,,/-B,,/-B,,/-B,,/-B,,/-B,,-<B,, |] %18

